Papirus/48x48/apps/tuxedo-control-center.svg

<svg width="48" height="48" version="1.1" xmlns="http://www.w3.org/2000/svg">
 <rect x="4" y="4.9999995" width="39.999973" height="39.999973" rx="7.8124886" ry="7.8124886" style="opacity:.2"/>
 <rect x="4" y="4" width="39.999973" height="39.999973" rx="7.8124886" ry="7.8124886" style="fill:#4f4f4f"/>
 <path d="m27.522835 9c-3.613424 0.024865-6.399878 1.17935-9.341 2.69076-9.7515101 5.011065-11.181836 14.703924-11.181836 18.190155 0 3.876195 1.4582462 7.921724 3.392937 11.119045h4.336443c-2.486581-3.0701-4.326166-7.3163-4.229379-11.3929 0.147281-6.1986 3.83752-11.814817 9.369419-14.6575 2.456875-1.262517 5.13214-2.449902 7.798998-2.449902 3.561688 0 5.566928 0.603351 9.528975 3.272102 0.318859 0.1937 0.590124 0.2282 0.871588 0.2282 1.394631 0 1.931019-0.987953 1.931019-1.769438 0-0.60226-0.227721-1.164039-0.740372-1.496262-4.516519-3.04209-7.20683-3.73426-11.736792-3.73426z" style="opacity:.2"/>
 <path d="m27.522835 8.0003419c-3.613424 0.024865-6.399878 1.17935-9.341 2.6907601-9.7515101 5.011065-11.181836 14.703924-11.181836 18.190155 0 3.876195 1.4582462 7.921724 3.3929366 11.119045h4.336443c-2.486581-3.0701-4.326166-7.3163-4.229379-11.3929 0.147281-6.1986 3.83752-11.814817 9.369419-14.6575 2.456875-1.262517 5.13214-2.449902 7.798998-2.449902 3.561688 0 5.566928 0.603351 9.528975 3.272102 0.318859 0.1937 0.590124 0.2282 0.871588 0.2282 1.394631 0 1.931019-0.987953 1.931019-1.769438 0-0.60226-0.227721-1.164039-0.740372-1.496262-4.516519-3.0420901-7.20683-3.7342601-11.736792-3.7342601z" style="fill:#c2352a"/>
 <path d="m37.046 19h-20.046v3h16.169l-3.5305 5.5196-2.8444-4.5194-3.4339-4e-4 4.4908 7.0247-7.163 10.9755h19.312v-3h-15.3687l4.2585-6.382 3.2863 5.382h3.4457l-4.9177-7.8448z" style="opacity:.2"/>
 <path d="m37.046 18h-20.046v3h16.169l-3.5305 5.5196-2.8444-4.5194-3.4339-4e-4 4.4908 7.0247-7.163 10.9755h19.312v-3h-15.3687l4.2585-6.382 3.2863 5.382h3.4457l-4.9177-7.8448z" style="fill:#ececec"/>
 <path d="m11.8125 4c-4.32812 0-7.8125 3.48438-7.8125 7.8125v1c0-4.32812 3.48438-7.8125 7.8125-7.8125h24.375c4.3281 0 7.8125 3.48438 7.8125 7.8125v-1c0-4.32812-3.4844-7.8125-7.8125-7.8125h-24.375z" style="fill:#ffffff;opacity:.1"/>
 <path d="m27.523438 8c-3.613425 0.024865-6.400675 1.1799961-9.341797 2.691406-9.7515105 5.011065-11.181641 14.703222-11.181641 18.189453 0 0.166918 0.0063889 0.334489 0.0117188 0.501953 0.1297772-3.827576 1.8373118-12.895603 11.169922-17.691406 2.941122-1.51141 5.728372-2.666541 9.341797-2.691406 4.529962 0 7.219809 0.692285 11.736328 3.734375 0.355743 0.230539 0.571423 0.572499 0.671875 0.960937 0.041776-0.156725 0.068359-0.314883 0.068359-0.464843 0-0.60226-0.227583-1.163871-0.740234-1.496094-4.516519-3.0420901-7.206367-3.734375-11.736328-3.734375zm-17.013672 21.455078c-0.001697 0.051065-0.008551 0.101199-0.009766 0.152344-0.086694 3.651469 1.382728 7.436035 3.476562 10.392578h0.751954c-2.314553-2.857702-4.065195-6.734504-4.21875-10.544922z" style="fill:#ffffff;opacity:.2"/>
</svg>

<svg xmlns="http://www.w3.org/2000/svg" width="48" height="48" version="1.1">
 <rect style="opacity:0.2" width="40" height="40" x="4" y="5" rx="7.813" ry="7.813"/>
 <rect style="fill:#4f4f4f" width="40" height="40" x="4" y="4" rx="7.813" ry="7.813"/>
 <path style="opacity:0.1" d="M 27.523,9 C 23.909,9.0249 21.123,10.179 18.182,11.691 8.4303,16.702 7,26.395 7,29.881 7,33.757 8.4582,37.803 10.393,41 H 14.729 C 12.243,37.93 10.403,33.684 10.5,29.607 10.647,23.408 14.338,17.792 19.869,14.95 22.326,13.687 25.002,12.5 27.668,12.5 31.23,12.5 33.235,13.103 37.197,15.772 37.516,15.965 37.788,16 38.069,16 39.464,16 40,15.012 40,14.231 40,13.628 39.772,13.066 39.26,12.734 34.743,9.6922 32.053,9 27.523,9 Z"/>
 <path style="fill:#c2352a" d="M 27.523,8.0003 C 23.909,8.0252 21.123,9.1797 18.182,10.691 8.4303,15.702 7,25.395 7,28.881 7,32.757 8.4582,36.803 10.393,40 H 14.729 C 12.243,36.93 10.403,32.684 10.5,28.607 10.647,22.409 14.338,16.793 19.869,13.95 22.326,12.687 25.002,11.5 27.668,11.5 31.23,11.5 33.235,12.103 37.197,14.772 37.516,14.966 37.788,15 38.069,15 39.464,15 40,14.012 40,13.231 40,12.629 39.772,12.067 39.26,11.735 34.743,8.6925 32.053,8.0003 27.523,8.0003 Z"/>
 <path style="opacity:0.1" d="M 37.046,19 H 17 V 22 H 33.169 L 29.638,27.52 26.794,23 H 23.36 L 27.851,30.024 20.688,41 H 40 V 38 H 24.631 L 28.89,31.618 32.176,37 H 35.622 L 30.704,29.155 Z"/>
 <path style="fill:#ececec" d="M 37.046,18 H 17 V 21 H 33.169 L 29.638,26.52 26.794,22 H 23.36 L 27.851,29.024 20.688,40 H 40 V 37 H 24.631 L 28.89,30.618 32.176,36 H 35.622 L 30.704,28.155 Z"/>
 <path style="opacity:0.1;fill:#ffffff" d="M 11.813,4 C 7.4844,4 4,7.4844 4,11.813 V 12.813 C 4,8.4844 7.4844,5 11.813,5 H 36.188 C 40.516,5 44,8.4844 44,12.813 V 11.813 C 44,7.4844 40.516,4 36.188,4 Z"/>
 <path style="opacity:0.2;fill:#ffffff" d="M 27.523,8 C 23.91,8.0249 21.123,9.18 18.182,10.691 8.4301,15.702 7,25.395 7,28.881 7,29.048 7.0064,29.215 7.0117,29.383 7.1415,25.555 8.849,16.487 18.182,11.691 21.123,10.18 23.91,9.0249 27.523,9 32.053,9 34.743,9.6923 39.26,12.734 39.616,12.965 39.831,13.307 39.932,13.695 39.973,13.539 40,13.38 40,13.23 40,12.628 39.772,12.067 39.26,11.734 34.743,8.6923 32.053,8 27.523,8 Z M 10.51,29.455 C 10.508,29.506 10.501,29.556 10.5,29.607 10.413,33.259 11.883,37.043 13.977,40 H 14.729 C 12.414,37.142 10.663,33.265 10.51,29.455 Z"/>
</svg>
